src/assets/icons/sort-alpha-up.svg

<svg width="14" height="14" viewBox="0 0 14 14" fill="none" xmlns="http://www.w3.org/2000/svg">
<g id="sort-alpha-up">
<g clip-path="url(#clip0_156_4672)">
<g id="Vector">
<path d="M4.09161 0.197818C4.02928 0.135491 3.95431 0.085812 3.8712 0.0514872C3.7059 -0.0171624 3.51892 -0.0171624 3.35362 0.0514872C3.27052 0.085812 3.19555 0.135491 3.13322 0.197818L0.87501 2.45603C0.610348 2.72069 0.610348 3.14975 0.87501 3.41441C1.13967 3.67908 1.56873 3.67908 1.8334 3.41441L2.9354 2.31241V13.3225C2.9354 13.6965 3.2389 14 3.61286 14C3.98682 14 4.29033 13.6965 4.29033 13.3225V2.31241L5.39233 3.41441C5.52421 3.54629 5.69764 3.61314 5.87108 3.61314C6.04451 3.61314 6.21794 3.5472 6.34982 3.41441C6.61448 3.14975 6.61448 2.72069 6.34982 2.45603L4.09161 0.197818Z" fill="black"/>
<path fill-rule="evenodd" clip-rule="evenodd" d="M8.80406 6.28325C9.15273 6.41061 9.54294 6.22543 9.6694 5.87315L9.92052 5.1722H11.7569L12.008 5.87315C12.1065 6.15046 12.3675 6.32299 12.6457 6.32299C12.7216 6.32299 12.7984 6.31034 12.8734 6.28325C13.2265 6.15679 13.4099 5.77018 13.2834 5.4179L11.7379 1.09478C11.5853 0.703658 11.2321 0.451642 10.8392 0.451642C10.4462 0.451642 10.093 0.703659 9.93317 1.11285L8.39487 5.4179C8.26841 5.76928 8.45178 6.15679 8.80406 6.28325ZM11.2727 3.81638H10.4047L10.8383 2.60236L11.2727 3.81638Z" fill="black"/>
<path d="M12.0686 7.67792C12.4859 7.67792 12.8499 7.92542 13.0197 8.32286C13.1995 8.74198 13.1137 9.22253 12.8029 9.5441L10.2602 12.1943H12.4199C12.7939 12.1943 13.0974 12.4978 13.0974 12.8718C13.0974 13.2458 12.7939 13.5493 12.4199 13.5493H9.59626C9.18075 13.5493 8.81854 13.3036 8.64962 12.9079C8.47077 12.4915 8.55478 12.0137 8.8628 11.693L11.4164 9.03284H9.25753C8.88357 9.03284 8.58007 8.72934 8.58007 8.35538C8.58007 7.98142 8.88357 7.67792 9.25753 7.67792H12.0686Z" fill="black"/>
</g>
</g>
</g>
<defs>
<clipPath id="clip0_156_4672">
<rect width="14" height="14" fill="white"/>
</clipPath>
</defs>
</svg>

<svg xmlns="http://www.w3.org/2000/svg" fill="none" viewBox="0 0 14 14"><g fill="#000" clip-path="url(#a)"><path d="M4.092.198A.68.68 0 0 0 3.354.05a.7.7 0 0 0-.22.147L.874 2.456a.678.678 0 1 0 .958.958l1.102-1.102v11.01a.678.678 0 0 0 1.355 0V2.313l1.102 1.102a.676.676 0 0 0 .958 0 .68.68 0 0 0 0-.958z"/><path fill-rule="evenodd" d="M8.804 6.283a.677.677 0 0 0 .865-.41l.252-.7h1.836l.251.7a.677.677 0 1 0 1.275-.455l-1.545-4.323c-.153-.391-.506-.643-.899-.643s-.746.252-.906.66L8.395 5.419a.677.677 0 0 0 .41.865m2.469-2.467h-.868l.433-1.214z" clip-rule="evenodd"/><path d="M12.069 7.678c.417 0 .78.247.95.645.18.419.095.9-.216 1.221l-2.543 2.65h2.16a.678.678 0 0 1 0 1.355H9.596c-.415 0-.777-.245-.946-.641a1.12 1.12 0 0 1 .213-1.215l2.553-2.66H9.258a.678.678 0 0 1 0-1.355z"/></g><defs><clipPath id="a"><path fill="#fff" d="M0 0h14v14H0z"/></clipPath></defs></svg>
